X:1
T:[ID 2-4]
T:[ID 2-4]
T:Bezeichnung standardisiert: Menuett Menuet [mit Trio]
T:Urheber unbekannt Datum in der hier transkribierten schriftlichen Quelle: 1767
C:Urheber unbekannt
C:Datum in der hier transkribierten schriftlichen Quelle: 1767
L:1/8
M:3/4
K:G
V:1 treble 
V:1
 d2 d2 (3efg | fe d4 | c2 B2 A2 | BAGF G2 | d2 d2 (3efg | fd Te4 | f2 ede^c | d6 :: d2 BdcB | %9
 c2 AcBA | BdcBAG | FGAF D2 | d2 BdcB | c2 AcBA | B2 AFAF | G6 :|"^Trio" !fermata!G4 (3BAG | %17
 d2 d2 d2 | G4 (3BAG | g2 g2 g2 | G4 (3BAG | e2 e2 d2 | c2 edcB | A6 :: AFDFAc | BGDGBd | c2 edcB | %27
 AGFE D2 | d4 e2 | dgfedc | B2 AGAF | G6 :| %32

